assets/img/braze_icons/layout-alt-03.svg

<svg fill="none" height="24" viewBox="0 0 24 24" width="24" xmlns="http://www.w3.org/2000/svg"><g fill="#801ed7"><path d="m17.8385 2h-11.67704c-.52713-.00002-.98192-.00003-1.35649.03057-.39534.0323-.78856.10362-1.16694.29641-.56449.28762-1.02343.74656-1.31105 1.31105-.19279.37838-.26411.7716-.29641 1.16694-.0306.37457-.03059.82932-.03057 1.35645 0 .46314.37545.83858.83858.83858h18.32282c.4632 0 .8386-.37544.8386-.83856 0-.52714 0-.9819-.0306-1.35647-.0323-.39534-.1036-.78856-.2964-1.16694-.2876-.56449-.7465-1.02343-1.311-1.31105-.3784-.19279-.7716-.26411-1.167-.29641-.3745-.0306-.8293-.03059-1.3565-.03057z"/><path clip-rule="evenodd" d="m22 10.6c0-.5601 0-.84008-.109-1.05399-.0959-.18816-.2488-.34114-.437-.43702-.2139-.10899-.4939-.10899-1.054-.10899h-16.8c-.56005 0-.84008 0-1.05399.10899-.18816.09588-.34114.24886-.43702.43702-.10899.21391-.10899.49389-.10899 1.05399v7.2385c-.00002.5272-.00003.982.03057 1.3565.0323.3954.10362.7886.29641 1.167.28762.5645.74656 1.0234 1.31105 1.311.37838.1928.7716.2641 1.16694.2964.37457.0306.82933.0306 1.35647.0306h11.67716c.5271 0 .9819 0 1.3564-.0306.3954-.0323.7886-.1036 1.167-.2964.5645-.2876 1.0234-.7465 1.311-1.311.1928-.3784.2641-.7716.2964-1.167.0306-.3745.0306-.8293.0306-1.3564zm-16.5 2.4c0-.5523.44772-1 1-1h11c.5523 0 1 .4477 1 1s-.4477 1-1 1h-11c-.55228 0-1-.4477-1-1zm0 4c0-.5523.44772-1 1-1h11c.5523 0 1 .4477 1 1s-.4477 1-1 1h-11c-.55228 0-1-.4477-1-1z" fill-rule="evenodd"/></g></svg>

<svg width="24" height="24" viewBox="0 0 24 24" fill="none" xmlns="http://www.w3.org/2000/svg">
<path d="M17.8385 2H6.16146C5.63433 1.99998 5.17954 1.99997 4.80497 2.03057C4.40963 2.06287 4.01641 2.13419 3.63803 2.32698C3.07354 2.6146 2.6146 3.07354 2.32698 3.63803C2.13419 4.01641 2.06287 4.40963 2.03057 4.80497C1.99997 5.17954 1.99998 5.63429 2 6.16142C2 6.62456 2.37545 7 2.83858 7H21.1614C21.6246 7 22 6.62456 22 6.16144C22 5.6343 22 5.17954 21.9694 4.80497C21.9371 4.40963 21.8658 4.01641 21.673 3.63803C21.3854 3.07354 20.9265 2.6146 20.362 2.32698C19.9836 2.13419 19.5904 2.06287 19.195 2.03057C18.8205 1.99997 18.3657 1.99998 17.8385 2Z" fill="#801ED7"/>
<path fill-rule="evenodd" clip-rule="evenodd" d="M22 10.6C22 10.0399 22 9.75992 21.891 9.54601C21.7951 9.35785 21.6422 9.20487 21.454 9.10899C21.2401 9 20.9601 9 20.4 9H3.6C3.03995 9 2.75992 9 2.54601 9.10899C2.35785 9.20487 2.20487 9.35785 2.10899 9.54601C2 9.75992 2 10.0399 2 10.6V17.8385C1.99998 18.3657 1.99997 18.8205 2.03057 19.195C2.06287 19.5904 2.13419 19.9836 2.32698 20.362C2.6146 20.9265 3.07354 21.3854 3.63803 21.673C4.01641 21.8658 4.40963 21.9371 4.80497 21.9694C5.17954 22 5.6343 22 6.16144 22H17.8386C18.3657 22 18.8205 22 19.195 21.9694C19.5904 21.9371 19.9836 21.8658 20.362 21.673C20.9265 21.3854 21.3854 20.9265 21.673 20.362C21.8658 19.9836 21.9371 19.5904 21.9694 19.195C22 18.8205 22 18.3657 22 17.8386V10.6ZM5.5 13C5.5 12.4477 5.94772 12 6.5 12H17.5C18.0523 12 18.5 12.4477 18.5 13C18.5 13.5523 18.0523 14 17.5 14H6.5C5.94772 14 5.5 13.5523 5.5 13ZM5.5 17C5.5 16.4477 5.94772 16 6.5 16H17.5C18.0523 16 18.5 16.4477 18.5 17C18.5 17.5523 18.0523 18 17.5 18H6.5C5.94772 18 5.5 17.5523 5.5 17Z" fill="#801ED7"/>
</svg>
